X: 34175
T: Reel Of Bogie, The
R: reel
M: 4/4
K: Adorian
Bd|eA ~A2 ed(3Bcd|eAAF ~G3 (3Bcd|eA ~A2 ed(3Bcd|gedB A2 Bd|
eA ~A2 eA ~A2|eAAF ~G2 Bd|~e3 f ~g2 ag|e2 dB A2||
(3cBA|~G2 Bd ~g3 e|dB ~B2 dBBA|~G2 (3Bcd ~g3 e|dedB AcBA|
G2 Bd ~g3|dedB dega|bgag eaaf|gedB A2||

